;FLAVOR:Marlin
;TIME:6858
;Filament used: 4.3808m
;Layer height: 0.2
;MINX:35.558
;MINY:79.113
;MINZ:0.2
;MAXX:137.116
;MAXY:154.246
;MAXZ:10.4
;Generated with Creality Slicer 4.8.2-254
M140 S50
M105
M190 S50
M104 S200
M105
M109 S200
M82 ;absolute extrusion mode

G28 ;Home

G92 E0 ;Reset Extruder
G1 Z2.0 F3000 ;Move Z Axis up
G1 X10.1 Y20 Z0.28 F5000.0 ;Move to start position
G1 X10.1 Y200.0 Z0.28 F1500.0 E15 ;Draw the first line
G1 X10.4 Y200.0 Z0.28 F5000.0 ;Move to side a little
G1 X10.4 Y20 Z0.28 F1500.0 E30 ;Draw the second line
G92 E0 ;Reset Extruder
G1 Z2.0 F3000 ;Move Z Axis up

G92 E0
G92 E0
G1 F2700 E-5
;LAYER_COUNT:52
;LAYER:0
M107
G0 F6000 X40.42 Y93.585 Z0.2
;TYPE:SKIRT
G1 F2700 E0
G1 F1200 X41.155 Y93.296 E0.02627
G1 X41.915 Y93.083 E0.05252
G1 X42.564 Y92.964 E0.07447
G1 X43.667 Y92.886 E0.11124
G1 X81.307 Y92.884 E1.36315
G1 X82.095 Y92.924 E1.3894
G1 X82.884 Y93.045 E1.41595
G1 X82.884 Y87.03 E1.61601
G1 X82.924 Y86.241 E1.64228
G1 X83.043 Y85.461 E1.66852
G1 X83.241 Y84.696 E1.69481
G1 X83.515 Y83.956 E1.72105
G1 X83.863 Y83.247 E1.74732
G1 X84.281 Y82.576 E1.77362
G1 X84.764 Y81.952 E1.79986
G1 X85.169 Y81.515 E1.81968
G1 X85.286 Y81.398 E1.82518
G1 X85.872 Y80.868 E1.85146
G1 X86.508 Y80.401 E1.8777
G1 X87.188 Y80 E1.90396
G1 X87.906 Y79.67 E1.93024
G1 X88.653 Y79.415 E1.9565
G1 X89.422 Y79.236 E1.98276
G1 X90.206 Y79.136 E2.00904
G1 X90.801 Y79.113 E2.02885
G1 X129.199 Y79.113 E3.30597
G1 X129.988 Y79.153 E3.33225
G1 X130.768 Y79.272 E3.35849
G1 X131.533 Y79.47 E3.38477
G1 X132.273 Y79.744 E3.41102
G1 X132.982 Y80.092 E3.43729
G1 X133.653 Y80.51 E3.46358
G1 X134.277 Y80.993 E3.48983
G1 X134.714 Y81.398 E3.50964
G1 X134.831 Y81.515 E3.51515
G1 X135.361 Y82.101 E3.54143
G1 X135.828 Y82.737 E3.56767
G1 X136.229 Y83.417 E3.59393
G1 X136.559 Y84.135 E3.62021
G1 X136.814 Y84.882 E3.64646
G1 X136.993 Y85.651 E3.67272
G1 X137.093 Y86.435 E3.69901
G1 X137.116 Y87.03 E3.71881
G1 X137.116 Y132.97 E5.24678
G1 X137.076 Y133.759 E5.27306
G1 X136.957 Y134.539 E5.2993
G1 X136.759 Y135.304 E5.32559
G1 X136.485 Y136.044 E5.35183
G1 X136.137 Y136.753 E5.3781
G1 X135.719 Y137.424 E5.40439
G1 X135.236 Y138.048 E5.43064
G1 X134.831 Y138.485 E5.45046
G1 X134.714 Y138.602 E5.45596
G1 X134.128 Y139.132 E5.48224
G1 X133.492 Y139.599 E5.50848
G1 X132.812 Y140 E5.53474
G1 X132.094 Y140.33 E5.56102
G1 X131.347 Y140.585 E5.58727
G1 X130.578 Y140.764 E5.61354
G1 X129.794 Y140.864 E5.63982
G1 X129.199 Y140.887 E5.65963
G1 X90.801 Y140.887 E6.93675
G1 X90.012 Y140.847 E6.96303
G1 X89.377 Y140.75 E6.98439
G1 X89.377 Y146.138 E7.1636
G1 X89.337 Y146.927 E7.18987
G1 X89.218 Y147.707 E7.21612
G1 X89.058 Y148.346 E7.23803
G1 X89.009 Y148.512 E7.24378
G1 X88.747 Y149.257 E7.27005
G1 X88.412 Y149.972 E7.29631
G1 X88.005 Y150.649 E7.32258
G1 X87.533 Y151.282 E7.34885
G1 X86.999 Y151.864 E7.37512
G1 X86.409 Y152.388 E7.40136
G1 X85.996 Y152.697 E7.41852
G1 X85.81 Y152.827 E7.42607
G1 X85.141 Y153.246 E7.45232
G1 X84.433 Y153.595 E7.47857
G1 X83.693 Y153.871 E7.50484
G1 X83.129 Y154.027 E7.52431
G1 X83.078 Y154.039 E7.52605
G1 X82.301 Y154.18 E7.55231
G1 X81.291 Y154.246 E7.58598
G1 X43.667 Y154.246 E8.83736
G1 X42.878 Y154.206 E8.86363
G1 X42.098 Y154.087 E8.88988
G1 X41.333 Y153.889 E8.91616
G1 X40.789 Y153.696 E8.93536
G1 X40.59 Y153.617 E8.94248
G1 X39.872 Y153.288 E8.96875
G1 X39.19 Y152.889 E8.99503
G1 X38.553 Y152.423 E9.02128
G1 X37.966 Y151.895 E9.04754
G1 X37.435 Y151.311 E9.07379
G1 X36.966 Y150.675 E9.10007
G1 X36.658 Y150.17 E9.11975
G1 X36.548 Y149.973 E9.12725
G1 X36.198 Y149.265 E9.15352
G1 X35.922 Y148.525 E9.17979
G1 X35.722 Y147.761 E9.20606
G1 X35.6 Y146.981 E9.23231
G1 X35.558 Y146.17 E9.25932
G1 X35.559 Y100.998 E10.76175
G1 X35.599 Y100.209 E10.78803
G1 X35.719 Y99.429 E10.81427
G1 X35.916 Y98.664 E10.84055
G1 X36.112 Y98.112 E10.86003
G1 X36.2 Y97.891 E10.86794
G1 X36.529 Y97.174 E10.89418
G1 X36.929 Y96.493 E10.92045
G1 X37.396 Y95.855 E10.94675
G1 X37.924 Y95.269 E10.97298
G1 X38.51 Y94.739 E10.99926
G1 X39.145 Y94.27 E11.02552
G1 X39.825 Y93.869 E11.05177
G1 X40.228 Y93.672 E11.06669
G1 X40.42 Y93.585 E11.07371
G0 F6000 X40.585 Y93.95
G1 F1200 X41.301 Y93.669 E11.09929
G1 X42.042 Y93.464 E11.12486
G1 X42.62 Y93.36 E11.14439
G1 X43.667 Y93.286 E11.1793
G1 X81.307 Y93.284 E12.43121
G1 X82.075 Y93.324 E12.45679
G1 X82.835 Y93.443 E12.48238
G1 X83.284 Y93.563 E12.49784
G1 X83.284 Y87.03 E12.71512
G1 X83.324 Y86.262 E12.7407
G1 X83.443 Y85.502 E12.76629
G1 X83.641 Y84.759 E12.79186
G1 X83.915 Y84.04 E12.81746
G1 X84.262 Y83.354 E12.84302
G1 X84.678 Y82.707 E12.86861
G1 X85.159 Y82.107 E12.89419
G1 X85.451 Y81.797 E12.90835
G1 X85.568 Y81.68 E12.91385
G1 X86.14 Y81.166 E12.93943
G1 X86.762 Y80.713 E12.96502
G1 X87.427 Y80.327 E12.9906
G1 X88.129 Y80.012 E13.01619
G1 X88.86 Y79.772 E13.04178
G1 X89.611 Y79.609 E13.06734
G1 X90.376 Y79.525 E13.09294
G1 X90.801 Y79.513 E13.10708
G1 X129.199 Y79.513 E14.3842
G1 X129.967 Y79.553 E14.40978
G1 X130.727 Y79.672 E14.43536
G1 X131.47 Y79.87 E14.46094
G1 X132.189 Y80.144 E14.48653
G1 X132.875 Y80.491 E14.5121
G1 X133.522 Y80.907 E14.53768
G1 X134.122 Y81.388 E14.56326
G1 X134.432 Y81.68 E14.57742
G1 X134.549 Y81.797 E14.58293
G1 X135.063 Y82.369 E14.60851
G1 X135.516 Y82.991 E14.6341
G1 X135.902 Y83.656 E14.65967
G1 X136.217 Y84.358 E14.68526
G1 X136.457 Y85.089 E14.71085
G1 X136.62 Y85.84 E14.73641
G1 X136.704 Y86.605 E14.76201
G1 X136.716 Y87.03 E14.77615
G1 X136.716 Y132.97 E16.30412
G1 X136.676 Y133.738 E16.3297
G1 X136.557 Y134.498 E16.35529
G1 X136.359 Y135.241 E16.38086
G1 X136.085 Y135.96 E16.40645
G1 X135.738 Y136.646 E16.43202
G1 X135.322 Y137.293 E16.45761
G1 X134.841 Y137.893 E16.48318
G1 X134.549 Y138.203 E16.49735
G1 X134.432 Y138.32 E16.50285
G1 X133.86 Y138.834 E16.52843
G1 X133.238 Y139.287 E16.55402
G1 X132.573 Y139.673 E16.57959
G1 X131.871 Y139.988 E16.60519
G1 X131.14 Y140.228 E16.63078
G1 X130.389 Y140.391 E16.65634
G1 X129.624 Y140.475 E16.68193
G1 X129.199 Y140.487 E16.69607
G1 X90.801 Y140.487 E17.9732
G1 X90.033 Y140.447 E17.99878
G1 X89.273 Y140.328 E18.02436
G1 X88.977 Y140.249 E18.03455
G1 X88.977 Y146.138 E18.23042
G1 X88.937 Y146.906 E18.256
G1 X88.818 Y147.666 E18.28158
G1 X88.674 Y148.233 E18.30104
G1 X88.625 Y148.399 E18.3068
G1 X88.369 Y149.124 E18.33237
G1 X88.04 Y149.819 E18.35795
G1 X87.64 Y150.476 E18.38353
G1 X87.174 Y151.088 E18.40911
G1 X86.647 Y151.648 E18.43469
G1 X85.767 Y152.369 E18.47253
G1 X85.581 Y152.499 E18.48008
G1 X84.929 Y152.907 E18.50566
G1 X84.238 Y153.244 E18.53123
G1 X83.515 Y153.508 E18.55683
G1 X83.037 Y153.637 E18.57329
G1 X82.986 Y153.649 E18.57504
G1 X82.229 Y153.786 E18.60062
G1 X81.291 Y153.846 E18.63189
G1 X43.667 Y153.846 E19.88326
G1 X42.899 Y153.806 E19.90884
G1 X42.139 Y153.687 E19.93443
G1 X41.396 Y153.489 E19.96
G1 X40.937 Y153.324 E19.97623
G1 X40.738 Y153.245 E19.98335
G1 X40.038 Y152.924 E20.00896
G1 X39.376 Y152.533 E20.03453
G1 X38.758 Y152.075 E20.06012
G1 X38.191 Y151.555 E20.08571
G1 X37.681 Y150.979 E20.11129
G1 X37.234 Y150.354 E20.13685
G1 X37.007 Y149.975 E20.15154
G1 X36.897 Y149.778 E20.15905
G1 X36.557 Y149.088 E20.18463
G1 X36.291 Y148.366 E20.21023
G1 X36.102 Y147.62 E20.23582
G1 X35.99 Y146.859 E20.2614
G1 X35.958 Y146.17 E20.28435
G1 X35.959 Y100.998 E21.78677
G1 X35.999 Y100.23 E21.81235
G1 X36.118 Y99.47 E21.83794
G1 X36.316 Y98.727 E21.86351
G1 X36.484 Y98.26 E21.88002
G1 X36.572 Y98.039 E21.88793
G1 X36.893 Y97.341 E21.91348
G1 X37.285 Y96.679 E21.93907
G1 X37.744 Y96.061 E21.96468
G1 X38.264 Y95.495 E21.99024
G1 X38.841 Y94.986 E22.01583
G1 X39.467 Y94.539 E22.04141
G1 X40.393 Y94.037 E22.07645
G1 X40.585 Y93.95 E22.08346
G0 F6000 X40.75 Y94.314
G1 F1200 X41.447 Y94.042 E22.10834
G1 X42.169 Y93.846 E22.13323
G1 X42.677 Y93.756 E22.15039
G1 X43.667 Y93.686 E22.1834
G1 X81.307 Y93.684 E23.43531
G1 X82.054 Y93.724 E23.46019
G1 X82.792 Y93.843 E23.48505
G1 X83.514 Y94.041 E23.50995
G1 X83.684 Y94.108 E23.51603
G1 X83.684 Y87.03 E23.75144
G1 X83.724 Y86.283 E23.77633
G1 X83.843 Y85.545 E23.80119
G1 X84.041 Y84.823 E23.82609
G1 X84.314 Y84.127 E23.85096
G1 X84.661 Y83.464 E23.87584
G1 X85.076 Y82.841 E23.90074
G1 X85.734 Y82.08 E23.9342
G1 X85.851 Y81.963 E23.93971
G1 X86.408 Y81.463 E23.9646
G1 X87.014 Y81.026 E23.98945
G1 X87.664 Y80.655 E24.01434
G1 X88.35 Y80.356 E24.03923
G1 X89.064 Y80.132 E24.06412
G1 X89.797 Y79.985 E24.08899
G1 X90.801 Y79.913 E24.12247
G1 X129.199 Y79.913 E25.39959
G1 X129.946 Y79.953 E25.42447
G1 X130.684 Y80.072 E25.44933
G1 X131.406 Y80.27 E25.47423
G1 X132.102 Y80.543 E25.4991
G1 X132.765 Y80.89 E25.52399
G1 X133.388 Y81.305 E25.54889
G1 X134.149 Y81.963 E25.58235
G1 X134.266 Y82.08 E25.58785
G1 X134.766 Y82.637 E25.61274
G1 X135.203 Y83.243 E25.63759
G1 X135.574 Y83.893 E25.66249
G1 X135.873 Y84.579 E25.68738
G1 X136.097 Y85.293 E25.71227
G1 X136.244 Y86.026 E25.73713
G1 X136.316 Y87.03 E25.77061
G1 X136.316 Y132.97 E27.29858
G1 X136.276 Y133.717 E27.32346
G1 X136.157 Y134.455 E27.34832
G1 X135.959 Y135.177 E27.37322
G1 X135.686 Y135.873 E27.39809
G1 X135.339 Y136.536 E27.42298
G1 X134.924 Y137.159 E27.44788
G1 X134.266 Y137.92 E27.48134
G1 X134.149 Y138.037 E27.48684
G1 X133.592 Y138.537 E27.51174
G1 X132.986 Y138.974 E27.53659
G1 X132.336 Y139.345 E27.56148
G1 X131.65 Y139.644 E27.58637
G1 X130.936 Y139.868 E27.61126
G1 X130.203 Y140.015 E27.63612
G1 X129.199 Y140.087 E27.6696
G1 X90.801 Y140.087 E28.94672
G1 X90.054 Y140.047 E28.9716
G1 X89.316 Y139.928 E28.99647
G1 X88.594 Y139.73 E29.02137
G1 X88.577 Y139.723 E29.02198
G1 X88.577 Y146.138 E29.23534
G1 X88.537 Y146.885 E29.26022
G1 X88.418 Y147.623 E29.28509
G1 X88.291 Y148.12 E29.30215
G1 X88.242 Y148.286 E29.30791
G1 X87.992 Y148.991 E29.33278
G1 X87.668 Y149.665 E29.35766
G1 X87.274 Y150.301 E29.38254
G1 X86.815 Y150.892 E29.40743
G1 X86.295 Y151.43 E29.43232
G1 X85.538 Y152.042 E29.46469
G1 X85.352 Y152.172 E29.47224
G1 X84.717 Y152.567 E29.49711
G1 X84.043 Y152.892 E29.522
G1 X83.339 Y153.143 E29.54686
G1 X82.894 Y153.26 E29.56216
G1 X82.158 Y153.392 E29.58703
G1 X81.291 Y153.446 E29.61593
G1 X43.667 Y153.446 E30.86731
G1 X42.92 Y153.406 E30.89219
G1 X42.182 Y153.287 E30.91705
G1 X41.46 Y153.089 E30.94195
G1 X41.084 Y152.952 E30.95526
G1 X40.885 Y152.873 E30.96238
G1 X40.206 Y152.56 E30.98725
G1 X39.563 Y152.177 E31.01214
G1 X38.966 Y151.727 E31.03701
G1 X38.419 Y151.216 E31.0619
G1 X37.931 Y150.649 E31.08679
G1 X37.356 Y149.78 E31.12144
G1 X37.246 Y149.583 E31.12895
G1 X36.917 Y148.911 E31.15383
G1 X36.661 Y148.208 E31.17872
G1 X36.482 Y147.482 E31.20359
G1 X36.381 Y146.74 E31.22849
G1 X36.358 Y146.17 E31.24747
G1 X36.359 Y100.998 E32.74989
G1 X36.399 Y100.251 E32.77477
G1 X36.518 Y99.512 E32.79967
G1 X36.716 Y98.791 E32.82454
G1 X36.856 Y98.408 E32.8381
G1 X36.944 Y98.187 E32.84601
G1 X37.257 Y97.508 E32.87088
G1 X37.641 Y96.866 E32.89576
G1 X38.092 Y96.269 E32.92065
G1 X38.603 Y95.723 E32.94552
G1 X39.17 Y95.235 E32.9704
G1 X39.786 Y94.811 E32.99527
G1 X40.558 Y94.401 E33.02435
G1 X40.75 Y94.314 E33.03136
G0 F6000 X40.915 Y94.678
G1 F1200 X41.592 Y94.415 E33.05552
G1 X42.294 Y94.229 E33.07967
G1 X42.734 Y94.152 E33.09453
G1 X43.667 Y94.086 E33.12564
G1 X81.307 Y94.084 E34.37755
G1 X82.032 Y94.124 E34.4017
G1 X82.748 Y94.243 E34.42584
G1 X83.447 Y94.441 E34.45
G1 X84.084 Y94.699 E34.47286
G1 X84.084 Y87.03 E34.72793
G1 X84.124 Y86.305 E34.75208
G1 X84.243 Y85.588 E34.77626
G1 X84.441 Y84.889 E34.80042
G1 X84.714 Y84.216 E34.82458
G1 X85.059 Y83.577 E34.84873
G1 X85.473 Y82.98 E34.87289
G1 X86.017 Y82.363 E34.90025
G1 X86.134 Y82.246 E34.90575
G1 X86.675 Y81.762 E34.9299
G1 X87.266 Y81.339 E34.95407
G1 X87.9 Y80.985 E34.97822
G1 X88.569 Y80.702 E35.00238
G1 X89.265 Y80.494 E35.02654
G1 X89.98 Y80.364 E35.05071
G1 X90.801 Y80.313 E35.07807
G1 X129.199 Y80.313 E36.3552
G1 X129.924 Y80.353 E36.37935
G1 X130.641 Y80.472 E36.40352
G1 X131.34 Y80.67 E36.42768
G1 X132.013 Y80.943 E36.45184
G1 X132.652 Y81.288 E36.47599
G1 X133.249 Y81.702 E36.50016
G1 X133.866 Y82.246 E36.52751
G1 X133.983 Y82.363 E36.53302
G1 X134.467 Y82.904 E36.55716
G1 X134.89 Y83.495 E36.58133
G1 X135.244 Y84.129 E36.60549
G1 X135.527 Y84.798 E36.62965
G1 X135.735 Y85.494 E36.65381
G1 X135.865 Y86.209 E36.67798
G1 X135.916 Y87.03 E36.70534
G1 X135.916 Y132.97 E38.23331
G1 X135.876 Y133.695 E38.25746
G1 X135.757 Y134.412 E38.28163
G1 X135.559 Y135.111 E38.30579
G1 X135.286 Y135.784 E38.32995
G1 X134.941 Y136.423 E38.3541
G1 X134.527 Y137.02 E38.37827
G1 X133.983 Y137.637 E38.40563
G1 X133.866 Y137.754 E38.41113
G1 X133.325 Y138.238 E38.43527
G1 X132.734 Y138.661 E38.45945
G1 X132.1 Y139.015 E38.4836
G1 X131.431 Y139.298 E38.50776
G1 X130.735 Y139.506 E38.53192
G1 X130.02 Y139.636 E38.55609
G1 X129.199 Y139.687 E38.58345
G1 X90.801 Y139.687 E39.86057
G1 X90.076 Y139.647 E39.88472
G1 X89.359 Y139.528 E39.90889
G1 X88.66 Y139.33 E39.93306
G1 X88.177 Y139.134 E39.95039
G1 X88.177 Y146.138 E40.18335
G1 X88.137 Y146.863 E40.2075
G1 X88.018 Y147.58 E40.23167
G1 X87.907 Y148.006 E40.24631
G1 X87.858 Y148.172 E40.25207
G1 X87.614 Y148.857 E40.27626
G1 X87.297 Y149.51 E40.3004
G1 X86.91 Y150.125 E40.32457
G1 X86.457 Y150.693 E40.34873
G1 X85.945 Y151.208 E40.37289
G1 X85.309 Y151.714 E40.39992
G1 X85.123 Y151.844 E40.40746
G1 X84.506 Y152.226 E40.4316
G1 X83.85 Y152.539 E40.45578
G1 X82.854 Y152.859 E40.49057
G1 X82.803 Y152.871 E40.49231
G1 X82.088 Y152.998 E40.51647
G1 X81.291 Y153.046 E40.54302
G1 X43.667 Y153.046 E41.7944
G1 X42.942 Y153.006 E41.81855
G1 X42.225 Y152.887 E41.84273
G1 X41.232 Y152.58 E41.8773
G1 X41.033 Y152.501 E41.88442
G1 X40.373 Y152.197 E41.90859
G1 X39.752 Y151.821 E41.93273
G1 X39.175 Y151.38 E41.95689
G1 X38.65 Y150.878 E41.98104
G1 X38.183 Y150.321 E42.00522
G1 X37.705 Y149.585 E42.03441
G1 X37.595 Y149.388 E42.04191
G1 X37.277 Y148.735 E42.06607
G1 X37.032 Y148.051 E42.09024
G1 X36.863 Y147.345 E42.11438
G1 X36.774 Y146.624 E42.13854
G1 X36.758 Y146.17 E42.15365
G1 X36.759 Y100.998 E43.65608
G1 X36.799 Y100.273 E43.68023
G1 X36.918 Y99.556 E43.7044
G1 X37.227 Y98.556 E43.73922
G1 X37.315 Y98.335 E43.74713
G1 X37.621 Y97.676 E43.77129
G1 X37.997 Y97.055 E43.79544
G1 X38.439 Y96.479 E43.81959
G1 X38.941 Y95.954 E43.84375
G1 X39.499 Y95.488 E43.86793
G1 X40.104 Y95.086 E43.89209
G1 X40.723 Y94.765 E43.91528
G1 X40.915 Y94.678 E43.92229
G0 F6000 X41.08 Y95.043
G1 F1200 X41.737 Y94.789 E43.94572
G1 X42.762 Y94.552 E43.98071
G1 X42.79 Y94.548 E43.98165
G1 X43.667 Y94.486 E44.01089
G1 X81.307 Y94.484 E45.2628
G1 X82.01 Y94.524 E45.28622
G1 X82.703 Y94.643 E45.30961
G1 X83.379 Y94.841 E45.33304
G1 X84.028 Y95.113 E45.35644
G1 X84.484 Y95.368 E45.37382
G1 X84.484 Y87.03 E45.65114
G1 X84.524 Y86.327 E45.67456
G1 X84.643 Y85.633 E45.69798
G1 X84.841 Y84.958 E45.72138
G1 X85.113 Y84.309 E45.74478
G1 X85.458 Y83.695 E45.76821
G1 X85.869 Y83.124 E45.79161
G1 X86.3 Y82.646 E45.81301
G1 X86.417 Y82.529 E45.81852
G1 X86.942 Y82.06 E45.84193
G1 X87.517 Y81.654 E45.86534
G1 X88.135 Y81.316 E45.88877
G1 X88.786 Y81.049 E45.91217
G1 X89.464 Y80.859 E45.93559
G1 X90.159 Y80.746 E45.95901
G1 X90.801 Y80.713 E45.98039
G1 X129.199 Y80.713 E47.25752
G1 X129.902 Y80.753 E47.28094
G1 X130.596 Y80.872 E47.30436
G1 X131.271 Y81.07 E47.32775
G1 X131.92 Y81.342 E47.35116
G1 X132.534 Y81.687 E47.37458
G1 X133.105 Y82.098 E47.39798
G1 X133.583 Y82.529 E47.41939
G1 X133.7 Y82.646 E47.42489
G1 X134.169 Y83.171 E47.44831
G1 X134.575 Y83.746 E47.47172
G1 X134.913 Y84.364 E47.49515
G1 X135.18 Y85.015 E47.51855
G1 X135.37 Y85.693 E47.54197
G1 X135.483 Y86.388 E47.56539
G1 X135.516 Y87.03 E47.58677
G1 X135.516 Y132.97 E49.11474
G1 X135.476 Y133.673 E49.13816
G1 X135.357 Y134.367 E49.16158
G1 X135.159 Y135.042 E49.18497
G1 X134.887 Y135.691 E49.20838
G1 X134.542 Y136.305 E49.2318
G1 X134.131 Y136.876 E49.2552
G1 X133.7 Y137.354 E49.27661
G1 X133.583 Y137.471 E49.28211
G1 X133.058 Y137.94 E49.30553
G1 X132.483 Y138.346 E49.32894
G1 X131.865 Y138.684 E49.35237
G1 X131.214 Y138.951 E49.37577
G1 X130.536 Y139.141 E49.39919
G1 X129.841 Y139.254 E49.42261
G1 X129.199 Y139.287 E49.44399
G1 X90.801 Y139.287 E50.72111
